src/places/symbolic/folder-symbolic.svg

<?xml version="1.0" encoding="UTF-8" standalone="no"?>
<svg
   width="16"
   height="16"
   version="1.1"
   viewBox="0 0 16 16"
   id="svg1"
   sodipodi:docname="folder-symbolic.svg"
   inkscape:version="1.3.2 (091e20ef0f, 2023-11-25)"
   xmlns:inkscape="http://www.inkscape.org/namespaces/inkscape"
   xmlns:sodipodi="http://sodipodi.sourceforge.net/DTD/sodipodi-0.dtd"
   xmlns="http://www.w3.org/2000/svg"
   xmlns:svg="http://www.w3.org/2000/svg">
  <sodipodi:namedview
     id="namedview1"
     pagecolor="#ffffff"
     bordercolor="#111111"
     borderopacity="1"
     inkscape:showpageshadow="0"
     inkscape:pageopacity="0"
     inkscape:pagecheckerboard="1"
     inkscape:deskcolor="#d1d1d1"
     inkscape:zoom="25.09375"
     inkscape:cx="3.6463263"
     inkscape:cy="3.0087173"
     inkscape:window-width="1920"
     inkscape:window-height="1011"
     inkscape:window-x="0"
     inkscape:window-y="0"
     inkscape:window-maximized="1"
     inkscape:current-layer="svg1" />
  <defs
     id="defs1">
    <style
       id="current-color-scheme"
       type="text/css">.ColorScheme-Text { color:#363636; } .ColorScheme-Text { color:#363636; }</style>
  </defs>
  <path
     id="path6"
     style="color:#000000;fill:#363636;-inkscape-stroke:none"
     d="M 1.9238281 1.4863281 C 0.85549224 1.4863281 -0.01953125 2.3628846 -0.01953125 3.4316406 L -0.01953125 8.515625 L -0.01953125 12.548828 C -0.01953125 12.749291 0.01131616 12.942608 0.068359375 13.125 C 0.087369797 13.185789 0.11008413 13.244617 0.13476562 13.302734 C 0.1350012 13.30329 0.13452954 13.304132 0.13476562 13.304688 C 0.15926787 13.362237 0.187057 13.418058 0.21679688 13.472656 C 0.54681665 14.079744 1.1888873 14.494141 1.9238281 14.494141 L 14.076172 14.494141 C 14.877082 14.494141 15.568759 14.001241 15.865234 13.304688 C 15.86547 13.304132 15.864999 13.30329 15.865234 13.302734 C 15.889909 13.244617 15.912637 13.185789 15.931641 13.125 C 15.988665 12.942608 16.019531 12.749291 16.019531 12.548828 L 16.019531 7.359375 L 16.019531 5.4492188 C 16.019531 4.2211117 15.016137 3.2128906 13.789062 3.2128906 L 7.1328125 3.2128906 C 6.9664922 3.2128906 6.8154106 3.1205225 6.7402344 2.9707031 L 6.5234375 2.5390625 C 6.1997786 1.8955612 5.5387337 1.4863281 4.8183594 1.4863281 L 1.9238281 1.4863281 z M 1.9238281 2.4863281 L 4.8183594 2.4863281 C 5.1622304 2.4863281 5.4735417 2.6793842 5.6289062 2.9882812 L 5.8476562 3.4199219 C 6.091077 3.9050354 6.5896356 4.2128906 7.1328125 4.2128906 L 13.789062 4.2128906 C 14.474693 4.2128906 15.019531 4.7601021 15.019531 5.4492188 L 15.019531 5.6601562 C 14.739535 5.5027097 14.418254 5.4121094 14.076172 5.4121094 L 8.2851562 5.4121094 C 7.7543294 5.4121094 7.2684419 5.6283706 6.9179688 5.9765625 L 6.9179688 5.9746094 C 6.6011351 6.2887213 6.1986015 6.5683594 6.0214844 6.5683594 L 1.9238281 6.5683594 C 1.5818657 6.5683594 1.2604616 6.6589596 0.98046875 6.8164062 L 0.98046875 3.4316406 C 0.98046875 2.8983796 1.3935361 2.4863281 1.9238281 2.4863281 z M 8.2851562 6.4121094 L 14.076172 6.4121094 C 14.607219 6.4121094 15.019531 6.8261143 15.019531 7.359375 L 15.019531 12.548828 C 15.019531 12.61558 15.012305 12.679834 15 12.742188 C 14.987695 12.804541 14.970732 12.865048 14.947266 12.921875 C 14.923799 12.978702 14.894812 13.031857 14.861328 13.082031 C 14.794341 13.182395 14.7076 13.268903 14.607422 13.335938 C 14.557333 13.369455 14.503932 13.398394 14.447266 13.421875 C 14.390594 13.445327 14.331644 13.46232 14.269531 13.474609 C 14.207418 13.486899 14.142582 13.494141 14.076172 13.494141 L 1.9238281 13.494141 C 1.8575121 13.494141 1.7925303 13.486899 1.7304688 13.474609 C 1.6684072 13.46232 1.6093886 13.445326 1.5527344 13.421875 C 1.4960802 13.398424 1.4426721 13.369424 1.3925781 13.335938 C 1.3424818 13.30242 1.2962945 13.263121 1.2539062 13.220703 C 1.211518 13.178285 1.1721965 13.132213 1.1386719 13.082031 C 1.1051569 13.031857 1.0762305 12.978703 1.0527344 12.921875 C 1.0292382 12.865047 1.0123245 12.804541 1 12.742188 C 0.98767549 12.679834 0.98046875 12.61558 0.98046875 12.548828 L 0.98046875 8.515625 C 0.98046875 7.9823637 1.3935361 7.5683594 1.9238281 7.5683594 L 6.0214844 7.5683594 C 6.7843377 7.5683594 7.2804003 7.0233136 7.6210938 6.6855469 C 7.7914467 6.5163027 8.0217544 6.4121094 8.2851562 6.4121094 z " />
</svg>

<?xml version="1.0" encoding="UTF-8"?>
<svg id="svg1" width="16" height="16" version="1.1" viewBox="0 0 16 16" xmlns="http://www.w3.org/2000/svg">
 <defs id="defs1">
  <style id="current-color-scheme" type="text/css">.ColorScheme-Text { color:#363636; } .ColorScheme-Text { color:#363636; }</style>
 </defs>
 <path id="path6" d="m1.9238 1.4863c-1.0683 0-1.9434 0.87656-1.9434 1.9453v5.084 4.0332c0 0.20046 0.030847 0.39378 0.087891 0.57617 0.01901 0.060789 0.041725 0.11962 0.066406 0.17773 2.3558e-4 5.56e-4 -2.3608e-4 0.001398 0 0.001954 0.024502 0.057549 0.052291 0.11337 0.082031 0.16797 0.33002 0.60709 0.97209 1.0215 1.707 1.0215h12.152c0.80091 0 1.4926-0.4929 1.7891-1.1895 2.36e-4 -5.56e-4 -2.35e-4 -0.001398 0-0.001954 0.024675-0.058117 0.047403-0.11694 0.066407-0.17773 0.057024-0.18239 0.08789-0.37571 0.08789-0.57617v-5.1895-1.9102c0-1.2281-1.0034-2.2363-2.2305-2.2363h-6.6562c-0.16632 0-0.3174-0.092368-0.39258-0.24219l-0.2168-0.43164c-0.32366-0.6435-0.9847-1.0527-1.7051-1.0527h-2.8945zm0 1h2.8945c0.34387 0 0.65518 0.19306 0.81055 0.50195l0.21875 0.43164c0.24342 0.48511 0.74198 0.79297 1.2852 0.79297h6.6562c0.68563 0 1.2305 0.54721 1.2305 1.2363v0.21094c-0.28-0.15745-0.60128-0.24805-0.94336-0.24805h-5.791c-0.53083 0-1.0167 0.21626-1.3672 0.56445v-0.0019531c-0.31683 0.31411-0.71937 0.59375-0.89648 0.59375h-4.0977c-0.34196 0-0.66337 0.0906-0.94336 0.24805v-3.3848c0-0.53326 0.41307-0.94531 0.94336-0.94531zm6.3613 3.9258h5.791c0.53105 0 0.94336 0.414 0.94336 0.94727v5.1895c0 0.066752-0.007226 0.13101-0.019531 0.19336-0.012305 0.062353-0.029268 0.12286-0.052734 0.17969-0.023467 0.056827-0.052454 0.10998-0.085938 0.16016-0.066987 0.10036-0.15373 0.18687-0.25391 0.25391-0.050089 0.033517-0.10349 0.062456-0.16016 0.085937-0.056672 0.023452-0.11562 0.040445-0.17774 0.052734-0.062113 0.01229-0.12695 0.019532-0.19336 0.019532h-12.152c-0.066316 0-0.1313-0.007242-0.19336-0.019532-0.062062-0.012289-0.12108-0.029283-0.17773-0.052734s-0.11006-0.052451-0.16016-0.085937c-0.050096-0.033518-0.096284-0.072817-0.13867-0.11524-0.042388-0.042418-0.08171-0.08849-0.11523-0.13867-0.033515-0.050174-0.062441-0.10333-0.085938-0.16016-0.023496-0.056828-0.04041-0.11733-0.052734-0.17969-0.012325-0.062354-0.019531-0.12661-0.019531-0.19336v-4.0332c0-0.53326 0.41307-0.94727 0.94336-0.94727h4.0977c0.76285 0 1.2589-0.54505 1.5996-0.88281 0.17035-0.16924 0.40066-0.27344 0.66406-0.27344z" color="#000000" fill="#363636" style="-inkscape-stroke:none"/>
</svg>
